; generated by Slic3r 1.1.7 on 2015-04-08 at 17:19:39

; perimeters extrusion width = 0.50mm
; infill extrusion width = 0.52mm
; solid infill extrusion width = 0.52mm
; top infill extrusion width = 0.52mm

G21 ; set units to millimeters
M107
M190 S65 ; wait for bed temperature to be reached
M104 S200 ; set temperature
G28 ; home all axes
G1 Z5 F5000 ; lift nozzle

M109 S200 ; wait for temperature to be reached
G90 ; use absolute coordinates
G92 E0
M82 ; use absolute distances for extrusion
G1 F1800.000 E-1.00000
G92 E0
G1 Z0.350 F7800.000
G1 X11.988 Y24.256 F7800.000
G1 E1.00000 F1800.000
G1 X14.143 Y23.454 E1.21982 F1080.000
G1 X15.350 Y23.344 E1.33576
G1 X185.000 Y23.344 E17.55662
G1 X187.265 Y23.741 E17.77644
G1 X189.259 Y24.885 E17.99626 F1080.000
G1 X190.745 Y26.638 E18.21608
G1 X191.547 Y28.793 E18.43590
G1 X191.657 Y30.001 E18.55185
G1 X191.657 Y169.999 E31.93758
G1 X191.260 Y172.264 E32.15740
G1 X190.116 Y174.258 E32.37722
G1 X188.363 Y175.744 E32.59704
G1 X186.208 Y176.546 E32.81686
G1 X185.000 Y176.656 E32.93281
G1 X15.350 Y176.656 E49.15366
G1 X13.086 Y176.259 E49.37349
G1 X11.091 Y175.115 E49.59331
G1 X9.605 Y173.362 E49.81313
G1 X8.803 Y171.207 E50.03295
G1 X8.693 Y169.999 E50.14889
G1 X8.693 Y30.001 E63.53463
G1 X9.090 Y27.736 E63.75445
G1 X10.234 Y25.742 E63.97427
G1 X11.930 Y24.304 E64.18692
G1 F1800.000 E63.18692
G92 E0
G1 X183.336 Y168.335 F7800.000
G1 E1.00000 F1800.000
G1 X17.014 Y168.335 E16.90262 F540.000
G1 X17.014 Y164.296 E17.28877
G1 X17.014 Y31.665 E29.97012
G1 X183.336 Y31.665 E45.87274
G1 X183.336 Y168.260 E58.93306
G1 X183.993 Y168.992 F7800.000
G1 X16.357 Y168.992 E74.96133 F540.000
G1 X16.357 Y164.296 E75.41030
G1 X16.357 Y31.008 E88.15448
G1 X183.993 Y31.008 E104.18275
G1 X183.993 Y168.917 E117.36872
G1 X184.650 Y169.649 F7800.000
G1 X15.700 Y169.649 E133.52265 F378.000
G1 X15.700 Y164.296 E134.03444
G1 X15.700 Y30.351 E146.84145
G1 X184.650 Y30.351 E162.99537
G1 X184.650 Y169.574 E176.30700
G1 X184.217 Y169.399 F7800.000
G1 X182.839 Y32.122 F7800.000
G1 X182.879 Y32.162 E176.31240 F1080.000
G1 X182.879 Y33.091 E176.40126
G1 X181.910 Y32.122 E176.53232
G1 X180.981 Y32.122 E176.62117
G1 X182.879 Y34.020 E176.87789
G1 X182.879 Y34.949 E176.96674
G1 X180.052 Y32.122 E177.34912
G1 X179.122 Y32.122 E177.43797
G1 X182.879 Y35.879 E177.94600
G1 X182.879 Y36.808 E178.03485
G1 X178.193 Y32.122 E178.66854
G1 X177.264 Y32.122 E178.75739
G1 X182.879 Y37.737 E179.51673
G1 X182.879 Y38.666 E179.60558
G1 X176.335 Y32.122 E180.49057
G1 X175.405 Y32.122 E180.57943
G1 X182.879 Y39.596 E181.59008
G1 X182.879 Y40.525 E181.67893
G1 X174.476 Y32.122 E182.81523
G1 X173.547 Y32.122 E182.90408
G1 X182.879 Y41.454 E184.16605
G1 X182.879 Y42.384 E184.25490
G1 X172.617 Y32.122 E185.64251
G1 X171.688 Y32.122 E185.73136
G1 X182.879 Y43.313 E187.24464
G1 X182.879 Y44.242 E187.33349
G1 X170.759 Y32.122 E188.97241
G1 X169.830 Y32.122 E189.06127
G1 X182.879 Y45.171 E190.82585
G1 X182.879 Y46.101 E190.91470
G1 X168.900 Y32.122 E192.80494
G1 X167.971 Y32.122 E192.89379
G1 X182.879 Y47.030 E194.90968
G1 X182.879 Y47.959 E194.99853
G1 X167.042 Y32.122 E197.14008
G1 X166.112 Y32.122 E197.22893
G1 X182.879 Y48.889 E199.49613
G1 X182.879 Y49.818 E199.58498
G1 X165.183 Y32.122 E201.97784
G1 X164.254 Y32.122 E202.06669
G1 X182.879 Y50.747 E204.58520
G1 X182.879 Y51.676 E204.67406
G1 X163.325 Y32.122 E207.31822
G1 X162.395 Y32.122 E207.40708
G1 X182.879 Y52.606 E210.17690
G1 X182.879 Y53.535 E210.26575
G1 X161.466 Y32.122 E213.16123
G1 X160.537 Y32.122 E213.25008
G1 X182.879 Y54.464 E216.27121
G1 X182.879 Y55.393 E216.36007
G1 X159.608 Y32.122 E219.50685
G1 X158.678 Y32.122 E219.59571
G1 X182.879 Y56.323 E222.86815
G1 X182.879 Y57.252 E222.95700
G1 X157.749 Y32.122 E226.35510
G1 X156.820 Y32.122 E226.44395
G1 X182.879 Y58.181 E229.96771
G1 X182.879 Y59.111 E230.05656
G1 X155.890 Y32.122 E233.70597
G1 X154.961 Y32.122 E233.79482
G1 X182.879 Y60.040 E237.56988
G1 X182.879 Y60.969 E237.65873
G1 X154.032 Y32.122 E241.55945
G1 X153.103 Y32.122 E241.64831
G1 X182.879 Y61.898 E245.67468
G1 X182.879 Y62.828 E245.76353
G1 X152.173 Y32.122 E249.91556
G1 X151.244 Y32.122 E250.00441
G1 X182.879 Y63.757 E254.28210
G1 X182.879 Y64.686 E254.37095
G1 X150.315 Y32.122 E258.77429
G1 X149.386 Y32.122 E258.86314
G1 X182.879 Y65.616 E263.39214
G1 X182.879 Y66.545 E263.48099
G1 X148.456 Y32.122 E268.13564
G1 X147.527 Y32.122 E268.22449
G1 X182.879 Y67.474 E273.00480
G1 X182.879 Y68.403 E273.09365
G1 X146.598 Y32.122 E277.99961
G1 X145.668 Y32.122 E278.08846
G1 X182.879 Y69.333 E283.12008
G1 X182.879 Y70.262 E283.20893
G1 X144.739 Y32.122 E288.36620
G1 X143.810 Y32.122 E288.45505
G1 X182.879 Y71.191 E293.73798
G1 X182.879 Y72.120 E293.82683
G1 X142.881 Y32.122 E299.23541
G1 X141.951 Y32.122 E299.32427
G1 X182.879 Y73.050 E304.85850
G1 X182.879 Y73.979 E304.94735
G1 X141.022 Y32.122 E310.60725
G1 X140.093 Y32.122 E310.69610
G1 X182.879 Y74.908 E316.48164
G1 X182.879 Y75.838 E316.57050
G1 X139.163 Y32.122 E322.48170
G1 X138.234 Y32.122 E322.57055
G1 X182.879 Y76.767 E328.60741
G1 X182.879 Y77.696 E328.69626
G1 X137.305 Y32.122 E334.85877
G1 X136.376 Y32.122 E334.94762
G1 X182.879 Y78.625 E341.23579
G1 X182.879 Y79.555 E341.32464
G1 X135.446 Y32.122 E347.73847
G1 X134.517 Y32.122 E347.82732
G1 X182.879 Y80.484 E354.36680
G1 X182.879 Y81.413 E354.45565
G1 X133.588 Y32.122 E361.12078
G1 X132.659 Y32.122 E361.20963
G1 X182.879 Y82.343 E368.00042
G1 X182.879 Y83.272 E368.08928
G1 X131.729 Y32.122 E375.00572
G1 X130.800 Y32.122 E375.09457
G1 X182.879 Y84.201 E382.13667
G1 X182.879 Y85.130 E382.22552
G1 X129.871 Y32.122 E389.39328
G1 X128.941 Y32.122 E389.48213
G1 X182.879 Y86.060 E396.77554
G1 X182.879 Y86.989 E396.86439
G1 X128.012 Y32.122 E404.28345
G1 X127.083 Y32.122 E404.37231
G1 X182.879 Y87.918 E411.91703
G1 X182.879 Y88.847 E412.00588
G1 X126.154 Y32.122 E419.67625
G1 X125.224 Y32.122 E419.76510
G1 X182.879 Y89.777 E427.56113
G1 X182.879 Y90.706 E427.64999
G1 X124.295 Y32.122 E435.57167
G1 X123.366 Y32.122 E435.66052
G1 X182.879 Y91.635 E443.70786
G1 X182.879 Y92.565 E443.79672
G1 X122.436 Y32.122 E451.96971
G1 X121.507 Y32.122 E452.05856
G1 X182.879 Y93.494 E460.35721
G1 X182.879 Y94.423 E460.44607
G1 X120.578 Y32.122 E468.87037
G1 X119.649 Y32.122 E468.95922
G1 X182.879 Y95.352 E477.50919
G1 X182.879 Y96.282 E477.59804
G1 X118.719 Y32.122 E486.27365
G1 X117.790 Y32.122 E486.36250
G1 X182.879 Y97.211 E495.16378
G1 X182.879 Y98.140 E495.25263
G1 X116.861 Y32.122 E504.17956
G1 X115.932 Y32.122 E504.26841
G1 X182.879 Y99.070 E513.32099
G1 X182.879 Y99.999 E513.40984
G1 X115.002 Y32.122 E522.58808
G1 X114.073 Y32.122 E522.67693
G1 X182.879 Y100.928 E531.98082
G1 X182.879 Y101.857 E532.06967
G1 X113.144 Y32.122 E541.49922
G1 X112.214 Y32.122 E541.58807
G1 X182.879 Y102.787 E551.14328
G1 X182.879 Y103.716 E551.23213
G1 X111.285 Y32.122 E560.91299
G1 X110.356 Y32.122 E561.00184
G1 X182.879 Y104.645 E570.80835
G1 X182.879 Y105.574 E570.89720
G1 X109.427 Y32.122 E580.82937
G1 X108.497 Y32.122 E580.91822
G1 X182.879 Y106.504 E590.97605
G1 X182.879 Y107.433 E591.06490
G1 X107.568 Y32.122 E601.24838
G1 X106.639 Y32.122 E601.33723
G1 X182.879 Y108.362 E611.64636
G1 X182.879 Y109.292 E611.73521
G1 X105.709 Y32.122 E622.17000
G1 X104.780 Y32.122 E622.25886
G1 X182.879 Y110.221 E632.81930
G1 X182.879 Y111.150 E632.90815
G1 X103.851 Y32.122 E643.59425
G1 X102.922 Y32.122 E643.68310
G1 X182.879 Y112.079 E654.49486
G1 X182.879 Y113.009 E654.58371
G1 X101.992 Y32.122 E665.52112
G1 X101.063 Y32.122 E665.60997
G1 X182.879 Y113.938 E676.67304
G1 X182.879 Y114.867 E676.76189
G1 X100.134 Y32.122 E687.95061
G1 X99.205 Y32.122 E688.03946
G1 X182.879 Y115.796 E699.35384
G1 X182.879 Y116.726 E699.44269
G1 X98.275 Y32.122 E710.88272
G1 X97.346 Y32.122 E710.97157
G1 X182.879 Y117.655 E722.53726
G1 X182.879 Y118.584 E722.62611
G1 X96.417 Y32.122 E734.31745
G1 X95.487 Y32.122 E734.40630
G1 X182.879 Y119.514 E746.22330
G1 X182.879 Y120.443 E746.31215
G1 X94.558 Y32.122 E758.25480
G1 X93.629 Y32.122 E758.34365
G1 X182.879 Y121.372 E770.41196
G1 X182.879 Y122.301 E770.50081
G1 X92.700 Y32.122 E782.69477
G1 X91.770 Y32.122 E782.78362
G1 X182.879 Y123.231 E795.10324
G1 X182.879 Y124.160 E795.19209
G1 X90.841 Y32.122 E807.63736
G1 X89.912 Y32.122 E807.72622
G1 X182.879 Y125.089 E820.29714
G1 X182.879 Y126.019 E820.38600
G1 X88.982 Y32.122 E833.08258
G1 X88.053 Y32.122 E833.17143
G1 X182.879 Y126.948 E845.99367
G1 X182.879 Y127.877 E846.08252
G1 X87.124 Y32.122 E859.03041
G1 X86.195 Y32.122 E859.11926
G1 X182.879 Y128.806 E872.19281
G1 X182.879 Y129.736 E872.28166
G1 X85.265 Y32.122 E885.48087
G1 X84.336 Y32.122 E885.56972
G1 X182.879 Y130.665 E898.89458
G1 X182.879 Y131.594 E898.98343
G1 X83.407 Y32.122 E912.43394
G1 X82.478 Y32.122 E912.52279
G1 X182.879 Y132.523 E926.09896
G1 X182.879 Y133.453 E926.18781
G1 X81.548 Y32.122 E939.88964
G1 X80.619 Y32.122 E939.97849
G1 X182.879 Y134.382 E953.80597
G1 X182.879 Y135.311 E953.89482
G1 X79.690 Y32.122 E967.84796
G1 X78.760 Y32.122 E967.93681
G1 X182.879 Y136.241 E982.01560
G1 X182.879 Y137.170 E982.10445
G1 X77.831 Y32.122 E996.30889
G1 X76.902 Y32.122 E996.39774
G1 X182.879 Y138.099 E1010.72785
G1 X182.879 Y139.028 E1010.81670
G1 X75.973 Y32.122 E1025.27245
G1 X75.043 Y32.122 E1025.36130
G1 X182.879 Y139.958 E1039.94271
G1 X182.879 Y140.887 E1040.03157
G1 X74.114 Y32.122 E1054.73863
G1 X73.185 Y32.122 E1054.82748
G1 X182.879 Y141.816 E1069.66020
G1 X182.879 Y142.746 E1069.74905
G1 X72.255 Y32.122 E1084.70743
G1 X71.326 Y32.122 E1084.79628
G1 X182.879 Y143.675 E1099.88031
G1 X182.879 Y144.604 E1099.96917
G1 X70.397 Y32.122 E1115.17885
G1 X69.468 Y32.122 E1115.26770
G1 X182.879 Y145.533 E1130.60304
G1 X182.879 Y146.463 E1130.69190
G1 X68.538 Y32.122 E1146.15289
G1 X67.609 Y32.122 E1146.24174
G1 X182.879 Y147.392 E1161.82840
G1 X182.879 Y148.321 E1161.91725
G1 X66.680 Y32.122 E1177.62956
G1 X65.751 Y32.122 E1177.71841
G1 X182.879 Y149.250 E1193.55637
G1 X182.879 Y150.180 E1193.64522
G1 X64.821 Y32.122 E1209.60884
G1 X63.892 Y32.122 E1209.69769
G1 X182.879 Y151.109 E1225.78696
G1 X182.879 Y152.038 E1225.87581
G1 X62.963 Y32.122 E1242.09074
G1 X62.033 Y32.122 E1242.17959
G1 X182.879 Y152.968 E1258.52018
G1 X182.879 Y153.897 E1258.60903
G1 X61.104 Y32.122 E1275.07527
G1 X60.175 Y32.122 E1275.16412
G1 X182.879 Y154.826 E1291.75601
G1 X182.879 Y155.755 E1291.84486
G1 X59.246 Y32.122 E1308.56241
G1 X58.316 Y32.122 E1308.65126
G1 X182.879 Y156.685 E1325.49447
G1 X182.879 Y157.614 E1325.58332
G1 X57.387 Y32.122 E1342.55218
G1 X56.458 Y32.122 E1342.64103
G1 X182.879 Y158.543 E1359.73554
G1 X182.879 Y159.473 E1359.82439
G1 X55.528 Y32.122 E1377.04456
G1 X54.599 Y32.122 E1377.13341
G1 X182.879 Y160.402 E1394.47924
G1 X182.879 Y161.331 E1394.56809
G1 X53.670 Y32.122 E1412.03957
G1 X52.741 Y32.122 E1412.12842
G1 X182.879 Y162.260 E1429.72556
G1 X182.879 Y163.190 E1429.81441
G1 X51.811 Y32.122 E1447.53720
G1 X50.882 Y32.122 E1447.62605
G1 X182.879 Y164.119 E1465.47450
G1 X182.879 Y165.048 E1465.56335
G1 X49.953 Y32.122 E1483.53745
G1 X49.024 Y32.122 E1483.62630
G1 X182.879 Y165.977 E1501.72605
G1 X182.879 Y166.907 E1501.81491
G1 X48.094 Y32.122 E1520.04032
G1 X47.165 Y32.122 E1520.12917
G1 X182.879 Y167.836 E1538.48023
G1 X181.993 Y167.878 E1538.56512
G1 X46.236 Y32.122 E1556.92193
G1 X45.306 Y32.122 E1557.01078
G1 X181.063 Y167.878 E1575.36759
G1 X180.134 Y167.878 E1575.45644
G1 X44.377 Y32.122 E1593.81325
G1 X43.448 Y32.122 E1593.90210
G1 X179.205 Y167.878 E1612.25891
G1 X178.276 Y167.878 E1612.34776
G1 X42.519 Y32.122 E1630.70457
G1 X41.589 Y32.122 E1630.79342
G1 X177.346 Y167.878 E1649.15022
G1 X176.417 Y167.878 E1649.23908
G1 X40.660 Y32.122 E1667.59588
G1 X39.731 Y32.122 E1667.68473
G1 X175.488 Y167.878 E1686.04154
G1 X174.558 Y167.878 E1686.13039
G1 X38.801 Y32.122 E1704.48720
G1 X37.872 Y32.122 E1704.57605
G1 X173.629 Y167.878 E1722.93286
G1 X172.700 Y167.878 E1723.02171
G1 X36.943 Y32.122 E1741.37852
G1 X36.014 Y32.122 E1741.46737
G1 X171.771 Y167.878 E1759.82418
G1 X170.841 Y167.878 E1759.91303
G1 X35.084 Y32.122 E1778.26984
G1 X34.155 Y32.122 E1778.35869
G1 X169.912 Y167.878 E1796.71549
G1 X168.983 Y167.878 E1796.80435
G1 X33.226 Y32.122 E1815.16115
G1 X32.297 Y32.122 E1815.25000
G1 X168.054 Y167.878 E1833.60681
G1 X167.124 Y167.878 E1833.69566
G1 X31.367 Y32.122 E1852.05247
G1 X30.438 Y32.122 E1852.14132
G1 X166.195 Y167.878 E1870.49813
G1 X165.266 Y167.878 E1870.58698
G1 X29.509 Y32.122 E1888.94379
G1 X28.579 Y32.122 E1889.03264
G1 X164.336 Y167.878 E1907.38945
G1 X163.407 Y167.878 E1907.47830
G1 X27.650 Y32.122 E1925.83511
G1 X26.721 Y32.122 E1925.92396
G1 X162.478 Y167.878 E1944.28076
G1 X161.549 Y167.878 E1944.36962
G1 X25.792 Y32.122 E1962.72642
G1 X24.862 Y32.122 E1962.81527
G1 X160.619 Y167.878 E1981.17208
G1 X159.690 Y167.878 E1981.26093
G1 X23.933 Y32.122 E1999.61774
G1 X23.004 Y32.122 E1999.70659
G1 X158.761 Y167.878 E2018.06340
G1 X157.831 Y167.878 E2018.15225
G1 X22.075 Y32.122 E2036.50906
G1 X21.145 Y32.122 E2036.59791
G1 X156.902 Y167.878 E2054.95472
G1 X155.973 Y167.878 E2055.04357
G1 X20.216 Y32.122 E2073.40038
G1 X19.287 Y32.122 E2073.48923
G1 X155.044 Y167.878 E2091.84603
G1 X154.114 Y167.878 E2091.93489
G1 X18.357 Y32.122 E2110.29169
G1 X17.471 Y32.164 E2110.37658
G1 X153.185 Y167.878 E2128.72764
G1 X152.256 Y167.878 E2128.81649
G1 X17.471 Y33.093 E2147.04190
G1 X17.471 Y34.023 E2147.13075
G1 X151.327 Y167.878 E2165.23050
G1 X150.397 Y167.878 E2165.31935
G1 X17.471 Y34.952 E2183.29345
G1 X17.471 Y35.881 E2183.38230
G1 X149.468 Y167.878 E2201.23074
G1 X148.539 Y167.878 E2201.31959
G1 X17.471 Y36.810 E2219.04238
G1 X17.471 Y37.740 E2219.13123
G1 X147.609 Y167.878 E2236.72836
G1 X146.680 Y167.878 E2236.81721
G1 X17.471 Y38.669 E2254.28869
G1 X17.471 Y39.598 E2254.37754
G1 X145.751 Y167.878 E2271.72336
G1 X144.822 Y167.878 E2271.81221
G1 X17.471 Y40.528 E2289.03238
G1 X17.471 Y41.457 E2289.12123
G1 X143.892 Y167.878 E2306.21574
G1 X142.963 Y167.878 E2306.30459
G1 X17.471 Y42.386 E2323.27345
G1 X17.471 Y43.315 E2323.36230
G1 X142.034 Y167.878 E2340.20550
G1 X141.104 Y167.878 E2340.29435
G1 X17.471 Y44.245 E2357.01190
G1 X17.471 Y45.174 E2357.10075
G1 X140.175 Y167.878 E2373.69264
G1 X139.246 Y167.878 E2373.78149
G1 X17.471 Y46.103 E2390.24772
G1 X17.471 Y47.032 E2390.33658
G1 X138.317 Y167.878 E2406.67715
G1 X137.387 Y167.878 E2406.76601
G1 X17.471 Y47.962 E2422.98093
G1 X17.471 Y48.891 E2423.06978
G1 X136.458 Y167.878 E2439.15905
G1 X135.529 Y167.878 E2439.24790
G1 X17.471 Y49.820 E2455.21152
G1 X17.471 Y50.750 E2455.30037
G1 X134.600 Y167.878 E2471.13833
G1 X133.670 Y167.878 E2471.22718
G1 X17.471 Y51.679 E2486.93949
G1 X17.471 Y52.608 E2487.02834
G1 X132.741 Y167.878 E2502.61499
G1 X131.812 Y167.878 E2502.70384
G1 X17.471 Y53.537 E2518.16483
G1 X17.471 Y54.467 E2518.25368
G1 X130.882 Y167.878 E2533.58902
G1 X129.953 Y167.878 E2533.67787
G1 X17.471 Y55.396 E2548.88756
G1 X17.471 Y56.325 E2548.97641
G1 X129.024 Y167.878 E2564.06044
G1 X128.095 Y167.878 E2564.14929
G1 X17.471 Y57.254 E2579.10766
G1 X17.471 Y58.184 E2579.19651
G1 X127.165 Y167.878 E2594.02923
G1 X126.236 Y167.878 E2594.11808
G1 X17.471 Y59.113 E2608.82515
G1 X17.471 Y60.042 E2608.91400
G1 X125.307 Y167.878 E2623.49541
G1 X124.377 Y167.878 E2623.58426
G1 X17.471 Y60.972 E2638.04001
G1 X17.471 Y61.901 E2638.12886
G1 X123.448 Y167.878 E2652.45896
G1 X122.519 Y167.878 E2652.54781
G1 X17.471 Y62.830 E2666.75226
G1 X17.471 Y63.759 E2666.84111
G1 X121.590 Y167.878 E2680.91990
G1 X120.660 Y167.878 E2681.00875
G1 X17.471 Y64.689 E2694.96188
G1 X17.471 Y65.618 E2695.05073
G1 X119.731 Y167.878 E2708.87821
G1 X118.802 Y167.878 E2708.96706
G1 X17.471 Y66.547 E2722.66888
G1 X17.471 Y67.477 E2722.75774
G1 X117.873 Y167.878 E2736.33390
G1 X116.943 Y167.878 E2736.42275
G1 X17.471 Y68.406 E2749.87327
G1 X17.471 Y69.335 E2749.96212
G1 X116.014 Y167.878 E2763.28698
G1 X115.085 Y167.878 E2763.37583
G1 X17.471 Y70.264 E2776.57503
G1 X17.471 Y71.194 E2776.66388
G1 X114.155 Y167.878 E2789.73743
G1 X113.226 Y167.878 E2789.82628
G1 X17.471 Y72.123 E2802.77417
