; generated by Slic3r 1.1.7 on 2015-04-08 at 17:20:19

; perimeters extrusion width = 0.50mm
; infill extrusion width = 0.52mm
; solid infill extrusion width = 0.52mm
; top infill extrusion width = 0.52mm

G21 ; set units to millimeters
M107
M190 S65 ; wait for bed temperature to be reached
M104 S200 ; set temperature
G28 ; home all axes
G1 Z5 F5000 ; lift nozzle

M109 S200 ; wait for temperature to be reached
G90 ; use absolute coordinates
G92 E0
M82 ; use absolute distances for extrusion
G1 F1800.000 E-1.00000
G92 E0
G1 Z0.350 F7800.000
G1 X68.739 Y27.736 F7800.000
G1 E1.00000 F1800.000
G1 X69.883 Y25.742 E1.21982 F1080.000
G1 X71.636 Y24.256 E1.43964
G1 X73.791 Y23.454 E1.65946
G1 X74.999 Y23.344 E1.77541
G1 X125.001 Y23.344 E6.55629
G1 X127.266 Y23.741 E6.77611
G1 X129.260 Y24.885 E6.99593 F1080.000
G1 X130.746 Y26.638 E7.21575
G1 X131.548 Y28.793 E7.43557
G1 X131.658 Y30.001 E7.55152
G1 X131.658 Y169.999 E20.93725
G1 X131.261 Y172.264 E21.15707
G1 X130.117 Y174.258 E21.37689
G1 X128.364 Y175.744 E21.59671
G1 X126.209 Y176.546 E21.81653
G1 X125.001 Y176.656 E21.93248
G1 X74.999 Y176.656 E26.71336
G1 X72.734 Y176.259 E26.93318
G1 X70.740 Y175.115 E27.15300
G1 X69.254 Y173.362 E27.37282
G1 X68.452 Y171.207 E27.59264
G1 X68.342 Y169.999 E27.70859
G1 X68.342 Y30.001 E41.09432
G1 X68.726 Y27.810 E41.30697
G1 F1800.000 E40.30697
G92 E0
G1 X122.349 Y122.349 F7800.000
G1 E1.00000 F1800.000
G1 X77.649 Y122.349 E5.27393 F378.000
G1 X77.649 Y77.651 E9.54767
G1 X122.349 Y77.651 E13.82160
G1 X122.349 Y122.274 E18.08817
G1 X122.349 Y122.849 F7800.000
G1 X123.006 Y168.992 F7800.000
G1 X123.006 Y31.008 E31.28132 F540.000
G1 X123.994 Y31.008 E31.37577
G1 X123.994 Y168.992 E44.56891
G1 X123.081 Y168.992 E44.65619
G1 F1800.000 E43.65619
G92 E0
G1 X76.992 Y168.992 F7800.000
G1 E1.00000 F1800.000
G1 X76.006 Y168.992 E1.09426 F540.000
G1 X76.006 Y31.008 E14.28740
G1 X76.992 Y31.008 E14.38166
G1 X76.992 Y168.917 E27.56764
G1 X77.649 Y123.649 F7800.000
G1 X77.649 Y169.649 E31.96587 F378.000
G1 X75.349 Y169.649 E32.18578
G1 X75.349 Y30.351 E45.50457
G1 X77.649 Y30.351 E45.72449
G1 X77.649 Y76.351 E50.12271
G1 X122.349 Y76.351 E54.39665
G1 X122.349 Y30.351 E58.79488
G1 X124.651 Y30.351 E59.01498
G1 X124.651 Y169.649 E72.33377
G1 X122.349 Y169.649 E72.55388
G1 X122.349 Y123.649 E76.95211
G1 X77.724 Y123.649 E81.21887
G1 X77.149 Y123.649 F7800.000
G1 F1800.000 E80.21887
G92 E0
G1 X121.999 Y169.500 F7800.000
G1 E1.00000 F1800.000
G1 X77.999 Y169.500 E5.20700 F378.000
G1 F1800.000 E4.20700
G92 E0
G1 X121.999 Y30.500 F7800.000
G1 E1.00000 F1800.000
G1 X77.999 Y30.500 E5.20700 F378.000
G1 X77.320 Y122.999 F7800.000
G1 X122.678 Y122.999 E7.72947 F360.000
G1 X122.678 Y77.001 F7800.000
G1 X77.320 Y77.001 E10.25194 F360.000
M104 S195 ; set temperature
M140 S60 ; set bed temperature
G1 F1800.000 E9.25194
G92 E0
G1 Z0.750 F7800.000
G1 X77.749 Y76.251 F7800.000
G1 E1.00000 F1800.000
G1 X77.749 Y30.749 E4.78351 F1260.000
G1 X122.249 Y30.749 E8.48370
G1 X122.249 Y76.251 E12.26720
G1 X77.824 Y76.251 E15.96116
G1 X77.249 Y76.251 F7800.000
G1 X77.249 Y77.251 F7800.000
G1 X122.749 Y77.251 E19.74450 F1800.000
G1 X122.749 Y122.749 E23.52767
G1 X77.249 Y122.749 E27.31101
G1 X77.249 Y77.326 E31.08795
G1 X77.749 Y77.751 F7800.000
G1 X122.249 Y77.751 E34.78814 F1260.000
G1 X122.249 Y122.249 E38.48817
G1 X77.749 Y122.249 E42.18836
G1 X77.749 Y77.826 E45.88214
G1 X77.749 Y77.251 F7800.000
G1 X77.749 Y123.749 F7800.000
G1 X122.249 Y123.749 E49.58233 F1260.000
G1 X122.249 Y169.251 E53.36584
G1 X77.749 Y169.251 E57.06603
G1 X77.749 Y123.824 E60.84330
G1 X77.749 Y123.249 F7800.000
G1 F1800.000 E59.84330
G92 E0
G1 X123.249 Y168.749 F7800.000
G1 E1.00000 F1800.000
G1 X123.249 Y31.251 E12.43301 F1800.000
G1 X123.751 Y31.251 E12.47475
G1 X123.751 Y168.749 E23.90775
G1 X123.324 Y168.749 E23.94326
G1 F1800.000 E22.94326
G92 E0
G1 X76.749 Y168.749 F7800.000
G1 E1.00000 F1800.000
G1 X76.249 Y168.749 E1.04158 F1800.000
G1 X76.249 Y31.251 E12.47458
G1 X76.749 Y31.251 E12.51616
G1 X76.749 Y168.674 E23.94293
G1 X77.249 Y123.249 F7800.000
G1 X77.249 Y169.249 E27.76784 F1800.000
G1 X75.749 Y169.249 E27.89257
G1 X75.749 Y30.751 E39.40872
G1 X77.249 Y30.751 E39.53345
G1 X77.249 Y76.751 E43.35836
G1 X122.749 Y76.751 E47.14170
G1 X122.749 Y30.751 E50.96662
G1 X124.251 Y30.751 E51.09151
G1 X124.251 Y169.249 E62.60767
G1 X122.749 Y169.249 E62.73256
G1 X122.749 Y123.249 E66.55748
G1 X77.324 Y123.249 E70.33458
G1 X75.249 Y169.749 F7800.000
G1 X75.249 Y30.251 E81.93389 F1260.000
G1 X124.751 Y30.251 E86.04999
G1 X124.751 Y169.749 E97.64930
G1 X75.324 Y169.749 E101.75917
G1 X75.499 Y169.316 F7800.000
G1 F1800.000 E100.75917
G92 E0
G1 Z1.150 F7800.000
G1 X77.749 Y76.251 F7800.000
G1 E1.00000 F1800.000
G1 X77.749 Y30.749 E4.78351 F1260.000
G1 X122.249 Y30.749 E8.48370
G1 X122.249 Y76.251 E12.26720
G1 X77.824 Y76.251 E15.96116
G1 X77.249 Y76.251 F7800.000
G1 X77.249 Y77.251 F7800.000
G1 X122.749 Y77.251 E19.74450 F1800.000
G1 X122.749 Y122.749 E23.52767
G1 X77.249 Y122.749 E27.31101
G1 X77.249 Y77.326 E31.08795
G1 X77.749 Y77.751 F7800.000
G1 X122.249 Y77.751 E34.78814 F1260.000
G1 X122.249 Y122.249 E38.48817
G1 X77.749 Y122.249 E42.18836
G1 X77.749 Y77.826 E45.88214
G1 X77.749 Y77.251 F7800.000
G1 X77.749 Y123.749 F7800.000
G1 X122.249 Y123.749 E49.58233 F1260.000
G1 X122.249 Y169.251 E53.36584
G1 X77.749 Y169.251 E57.06603
G1 X77.749 Y123.824 E60.84330
G1 X77.749 Y123.249 F7800.000
G1 F1800.000 E59.84330
G92 E0
G1 X123.249 Y168.749 F7800.000
G1 E1.00000 F1800.000
G1 X123.249 Y31.251 E12.43301 F1800.000
G1 X123.751 Y31.251 E12.47475
G1 X123.751 Y168.749 E23.90775
G1 X123.324 Y168.749 E23.94326
G1 F1800.000 E22.94326
G92 E0
G1 X76.749 Y168.749 F7800.000
G1 E1.00000 F1800.000
G1 X76.249 Y168.749 E1.04158 F1800.000
G1 X76.249 Y31.251 E12.47458
G1 X76.749 Y31.251 E12.51616
G1 X76.749 Y168.674 E23.94293
G1 X77.249 Y123.249 F7800.000
G1 X77.249 Y169.249 E27.76784 F1800.000
G1 X75.749 Y169.249 E27.89257
G1 X75.749 Y30.751 E39.40872
G1 X77.249 Y30.751 E39.53345
G1 X77.249 Y76.751 E43.35836
G1 X122.749 Y76.751 E47.14170
G1 X122.749 Y30.751 E50.96662
G1 X124.251 Y30.751 E51.09151
G1 X124.251 Y169.249 E62.60767
G1 X122.749 Y169.249 E62.73256
G1 X122.749 Y123.249 E66.55748
G1 X77.324 Y123.249 E70.33458
G1 X75.249 Y169.749 F7800.000
G1 X75.249 Y30.251 E81.93389 F1260.000
G1 X124.751 Y30.251 E86.04999
G1 X124.751 Y169.749 E97.64930
G1 X75.324 Y169.749 E101.75917
G1 X75.499 Y169.316 F7800.000
G1 F1800.000 E100.75917
G92 E0
G1 Z1.550 F7800.000
G1 X77.749 Y76.251 F7800.000
G1 E1.00000 F1800.000
G1 X77.749 Y30.749 E4.78351 F1260.000
G1 X122.249 Y30.749 E8.48370
G1 X122.249 Y76.251 E12.26720
G1 X77.824 Y76.251 E15.96116
G1 X77.249 Y76.251 F7800.000
G1 X77.249 Y77.251 F7800.000
G1 X122.749 Y77.251 E19.74450 F1800.000
G1 X122.749 Y122.749 E23.52767
G1 X77.249 Y122.749 E27.31101
G1 X77.249 Y77.326 E31.08795
G1 X77.749 Y77.751 F7800.000
G1 X122.249 Y77.751 E34.78814 F1260.000
G1 X122.249 Y122.249 E38.48817
G1 X77.749 Y122.249 E42.18836
G1 X77.749 Y77.826 E45.88214
G1 X77.749 Y77.251 F7800.000
G1 X77.749 Y123.749 F7800.000
G1 X122.249 Y123.749 E49.58233 F1260.000
G1 X122.249 Y169.251 E53.36584
G1 X77.749 Y169.251 E57.06603
G1 X77.749 Y123.824 E60.84330
G1 X77.749 Y123.249 F7800.000
G1 F1800.000 E59.84330
G92 E0
G1 X123.249 Y168.749 F7800.000
G1 E1.00000 F1800.000
G1 X123.249 Y31.251 E12.43301 F1800.000
G1 X123.751 Y31.251 E12.47475
G1 X123.751 Y168.749 E23.90775
G1 X123.324 Y168.749 E23.94326
G1 F1800.000 E22.94326
G92 E0
G1 X76.749 Y168.749 F7800.000
G1 E1.00000 F1800.000
G1 X76.249 Y168.749 E1.04158 F1800.000
G1 X76.249 Y31.251 E12.47458
G1 X76.749 Y31.251 E12.51616
G1 X76.749 Y168.674 E23.94293
G1 X77.249 Y123.249 F7800.000
G1 X77.249 Y169.249 E27.76784 F1800.000
G1 X75.749 Y169.249 E27.89257
G1 X75.749 Y30.751 E39.40872
G1 X77.249 Y30.751 E39.53345
G1 X77.249 Y76.751 E43.35836
G1 X122.749 Y76.751 E47.14170
G1 X122.749 Y30.751 E50.96662
G1 X124.251 Y30.751 E51.09151
G1 X124.251 Y169.249 E62.60767
G1 X122.749 Y169.249 E62.73256
G1 X122.749 Y123.249 E66.55748
G1 X77.324 Y123.249 E70.33458
G1 X75.249 Y169.749 F7800.000
G1 X75.249 Y30.251 E81.93389 F1260.000
G1 X124.751 Y30.251 E86.04999
G1 X124.751 Y169.749 E97.64930
G1 X75.324 Y169.749 E101.75917
G1 X75.499 Y169.316 F7800.000
G1 F1800.000 E100.75917
G92 E0
G1 Z1.950 F7800.000
G1 X77.749 Y76.251 F7800.000
G1 E1.00000 F1800.000
G1 X77.749 Y30.749 E4.78351 F1260.000
G1 X122.249 Y30.749 E8.48370
G1 X122.249 Y76.251 E12.26720
G1 X77.824 Y76.251 E15.96116
G1 X77.249 Y76.251 F7800.000
G1 X77.249 Y77.251 F7800.000
G1 X122.749 Y77.251 E19.74450 F1800.000
G1 X122.749 Y122.749 E23.52767
G1 X77.249 Y122.749 E27.31101
G1 X77.249 Y77.326 E31.08795
G1 X77.749 Y77.751 F7800.000
G1 X122.249 Y77.751 E34.78814 F1260.000
G1 X122.249 Y122.249 E38.48817
G1 X77.749 Y122.249 E42.18836
G1 X77.749 Y77.826 E45.88214
G1 X77.749 Y77.251 F7800.000
G1 X77.749 Y123.749 F7800.000
G1 X122.249 Y123.749 E49.58233 F1260.000
G1 X122.249 Y169.251 E53.36584
G1 X77.749 Y169.251 E57.06603
G1 X77.749 Y123.824 E60.84330
G1 X77.749 Y123.249 F7800.000
G1 F1800.000 E59.84330
G92 E0
G1 X123.249 Y168.749 F7800.000
G1 E1.00000 F1800.000
G1 X123.249 Y31.251 E12.43301 F1800.000
G1 X123.751 Y31.251 E12.47475
G1 X123.751 Y168.749 E23.90775
G1 X123.324 Y168.749 E23.94326
G1 F1800.000 E22.94326
G92 E0
G1 X76.749 Y168.749 F7800.000
G1 E1.00000 F1800.000
G1 X76.249 Y168.749 E1.04158 F1800.000
G1 X76.249 Y31.251 E12.47458
G1 X76.749 Y31.251 E12.51616
G1 X76.749 Y168.674 E23.94293
G1 X77.249 Y123.249 F7800.000
G1 X77.249 Y169.249 E27.76784 F1800.000
G1 X75.749 Y169.249 E27.89257
G1 X75.749 Y30.751 E39.40872
G1 X77.249 Y30.751 E39.53345
G1 X77.249 Y76.751 E43.35836
G1 X122.749 Y76.751 E47.14170
G1 X122.749 Y30.751 E50.96662
G1 X124.251 Y30.751 E51.09151
G1 X124.251 Y169.249 E62.60767
G1 X122.749 Y169.249 E62.73256
G1 X122.749 Y123.249 E66.55748
G1 X77.324 Y123.249 E70.33458
G1 X75.249 Y169.749 F7800.000
G1 X75.249 Y30.251 E81.93389 F1260.000
G1 X124.751 Y30.251 E86.04999
G1 X124.751 Y169.749 E97.64930
G1 X75.324 Y169.749 E101.75917
G1 X75.499 Y169.316 F7800.000
G1 F1800.000 E100.75917
G92 E0
G1 Z2.350 F7800.000
G1 X77.749 Y76.251 F7800.000
G1 E1.00000 F1800.000
G1 X77.749 Y30.749 E4.78351 F1260.000
G1 X122.249 Y30.749 E8.48370
G1 X122.249 Y76.251 E12.26720
G1 X77.824 Y76.251 E15.96116
G1 X77.249 Y76.251 F7800.000
G1 X77.249 Y77.251 F7800.000
G1 X122.749 Y77.251 E19.74450 F1800.000
G1 X122.749 Y122.749 E23.52767
G1 X77.249 Y122.749 E27.31101
G1 X77.249 Y77.326 E31.08795
G1 X77.749 Y77.751 F7800.000
G1 X122.249 Y77.751 E34.78814 F1260.000
G1 X122.249 Y122.249 E38.48817
G1 X77.749 Y122.249 E42.18836
G1 X77.749 Y77.826 E45.88214
G1 X77.749 Y77.251 F7800.000
G1 X77.749 Y123.749 F7800.000
G1 X122.249 Y123.749 E49.58233 F1260.000
G1 X122.249 Y169.251 E53.36584
G1 X77.749 Y169.251 E57.06603
G1 X77.749 Y123.824 E60.84330
G1 X77.749 Y123.249 F7800.000
G1 F1800.000 E59.84330
G92 E0
G1 X123.249 Y168.749 F7800.000
G1 E1.00000 F1800.000
G1 X123.249 Y31.251 E12.43301 F1800.000
G1 X123.751 Y31.251 E12.47475
G1 X123.751 Y168.749 E23.90775
G1 X123.324 Y168.749 E23.94326
G1 F1800.000 E22.94326
G92 E0
G1 X76.749 Y168.749 F7800.000
G1 E1.00000 F1800.000
G1 X76.249 Y168.749 E1.04158 F1800.000
G1 X76.249 Y31.251 E12.47458
G1 X76.749 Y31.251 E12.51616
G1 X76.749 Y168.674 E23.94293
G1 X77.249 Y123.249 F7800.000
G1 X77.249 Y169.249 E27.76784 F1800.000
G1 X75.749 Y169.249 E27.89257
G1 X75.749 Y30.751 E39.40872
G1 X77.249 Y30.751 E39.53345
G1 X77.249 Y76.751 E43.35836
G1 X122.749 Y76.751 E47.14170
G1 X122.749 Y30.751 E50.96662
G1 X124.251 Y30.751 E51.09151
G1 X124.251 Y169.249 E62.60767
G1 X122.749 Y169.249 E62.73256
G1 X122.749 Y123.249 E66.55748
G1 X77.324 Y123.249 E70.33458
G1 X75.249 Y169.749 F7800.000
G1 X75.249 Y30.251 E81.93389 F1260.000
G1 X124.751 Y30.251 E86.04999
G1 X124.751 Y169.749 E97.64930
G1 X75.324 Y169.749 E101.75917
G1 X75.499 Y169.316 F7800.000
G1 F1800.000 E100.75917
G92 E0
G1 Z2.750 F7800.000
G1 X77.749 Y76.251 F7800.000
G1 E1.00000 F1800.000
G1 X77.749 Y30.749 E4.78351 F1260.000
G1 X122.249 Y30.749 E8.48370
G1 X122.249 Y76.251 E12.26720
G1 X77.824 Y76.251 E15.96116
G1 X77.249 Y76.251 F7800.000
G1 X77.249 Y77.251 F7800.000
G1 X122.749 Y77.251 E19.74450 F1800.000
G1 X122.749 Y122.749 E23.52767
G1 X77.249 Y122.749 E27.31101
G1 X77.249 Y77.326 E31.08795
G1 X77.749 Y77.751 F7800.000
G1 X122.249 Y77.751 E34.78814 F1260.000
G1 X122.249 Y122.249 E38.48817
G1 X77.749 Y122.249 E42.18836
G1 X77.749 Y77.826 E45.88214
G1 X77.749 Y77.251 F7800.000
G1 X77.749 Y123.749 F7800.000
G1 X122.249 Y123.749 E49.58233 F1260.000
G1 X122.249 Y169.251 E53.36584
G1 X77.749 Y169.251 E57.06603
G1 X77.749 Y123.824 E60.84330
G1 X77.749 Y123.249 F7800.000
G1 F1800.000 E59.84330
G92 E0
G1 X123.249 Y168.749 F7800.000
G1 E1.00000 F1800.000
G1 X123.249 Y31.251 E12.43301 F1800.000
G1 X123.751 Y31.251 E12.47475
G1 X123.751 Y168.749 E23.90775
G1 X123.324 Y168.749 E23.94326
G1 F1800.000 E22.94326
G92 E0
G1 X76.749 Y168.749 F7800.000
G1 E1.00000 F1800.000
G1 X76.249 Y168.749 E1.04158 F1800.000
G1 X76.249 Y31.251 E12.47458
G1 X76.749 Y31.251 E12.51616
G1 X76.749 Y168.674 E23.94293
G1 X77.249 Y123.249 F7800.000
G1 X77.249 Y169.249 E27.76784 F1800.000
G1 X75.749 Y169.249 E27.89257
G1 X75.749 Y30.751 E39.40872
G1 X77.249 Y30.751 E39.53345
G1 X77.249 Y76.751 E43.35836
G1 X122.749 Y76.751 E47.14170
G1 X122.749 Y30.751 E50.96662
G1 X124.251 Y30.751 E51.09151
G1 X124.251 Y169.249 E62.60767
G1 X122.749 Y169.249 E62.73256
G1 X122.749 Y123.249 E66.55748
G1 X77.324 Y123.249 E70.33458
G1 X75.249 Y169.749 F7800.000
G1 X75.249 Y30.251 E81.93389 F1260.000
G1 X124.751 Y30.251 E86.04999
G1 X124.751 Y169.749 E97.64930
G1 X75.324 Y169.749 E101.75917
G1 X75.499 Y169.316 F7800.000
G1 F1800.000 E100.75917
G92 E0
G1 Z3.150 F7800.000
G1 X77.749 Y76.251 F7800.000
G1 E1.00000 F1800.000
G1 X77.749 Y30.749 E4.78351 F1260.000
G1 X122.249 Y30.749 E8.48370
G1 X122.249 Y76.251 E12.26720
G1 X77.824 Y76.251 E15.96116
G1 X77.249 Y76.251 F7800.000
G1 X77.249 Y77.251 F7800.000
G1 X122.749 Y77.251 E19.74450 F1800.000
G1 X122.749 Y122.749 E23.52767
G1 X77.249 Y122.749 E27.31101
G1 X77.249 Y77.326 E31.08795
G1 X77.749 Y77.751 F7800.000
G1 X122.249 Y77.751 E34.78814 F1260.000
G1 X122.249 Y122.249 E38.48817
G1 X77.749 Y122.249 E42.18836
G1 X77.749 Y77.826 E45.88214
G1 X77.749 Y77.251 F7800.000
G1 X77.749 Y123.749 F7800.000
G1 X122.249 Y123.749 E49.58233 F1260.000
G1 X122.249 Y169.251 E53.36584
G1 X77.749 Y169.251 E57.06603
G1 X77.749 Y123.824 E60.84330
G1 X77.749 Y123.249 F7800.000
G1 F1800.000 E59.84330
G92 E0
G1 X123.249 Y168.749 F7800.000
G1 E1.00000 F1800.000
G1 X123.249 Y31.251 E12.43301 F1800.000
G1 X123.751 Y31.251 E12.47475
G1 X123.751 Y168.749 E23.90775
G1 X123.324 Y168.749 E23.94326
G1 F1800.000 E22.94326
G92 E0
G1 X76.749 Y168.749 F7800.000
G1 E1.00000 F1800.000
G1 X76.249 Y168.749 E1.04158 F1800.000
G1 X76.249 Y31.251 E12.47458
G1 X76.749 Y31.251 E12.51616
G1 X76.749 Y168.674 E23.94293
G1 X77.249 Y123.249 F7800.000
G1 X77.249 Y169.249 E27.76784 F1800.000
G1 X75.749 Y169.249 E27.89257
G1 X75.749 Y30.751 E39.40872
G1 X77.249 Y30.751 E39.53345
G1 X77.249 Y76.751 E43.35836
G1 X122.749 Y76.751 E47.14170
G1 X122.749 Y30.751 E50.96662
G1 X124.251 Y30.751 E51.09151
G1 X124.251 Y169.249 E62.60767
G1 X122.749 Y169.249 E62.73256
G1 X122.749 Y123.249 E66.55748
G1 X77.324 Y123.249 E70.33458
G1 X75.249 Y169.749 F7800.000
G1 X75.249 Y30.251 E81.93389 F1260.000
G1 X124.751 Y30.251 E86.04999
G1 X124.751 Y169.749 E97.64930
G1 X75.324 Y169.749 E101.75917
G1 X75.499 Y169.316 F7800.000
G1 F1800.000 E100.75917
G92 E0
G1 Z3.550 F7800.000
G1 X77.749 Y76.251 F7800.000
G1 E1.00000 F1800.000
G1 X77.749 Y30.749 E4.78351 F1260.000
G1 X122.249 Y30.749 E8.48370
G1 X122.249 Y76.251 E12.26720
G1 X77.824 Y76.251 E15.96116
G1 X77.249 Y76.251 F7800.000
G1 X77.249 Y77.251 F7800.000
G1 X122.749 Y77.251 E19.74450 F1800.000
G1 X122.749 Y122.749 E23.52767
G1 X77.249 Y122.749 E27.31101
G1 X77.249 Y77.326 E31.08795
G1 X77.749 Y77.751 F7800.000
G1 X122.249 Y77.751 E34.78814 F1260.000
G1 X122.249 Y122.249 E38.48817
