; generated by Slic3r 1.1.7 on 2015-04-08 at 06:58:18

; perimeters extrusion width = 0.50mm
; infill extrusion width = 0.52mm
; solid infill extrusion width = 0.52mm
; top infill extrusion width = 0.52mm

G21 ; set units to millimeters
M107
M190 S65 ; wait for bed temperature to be reached
M104 S200 ; set temperature
G28 ; home all axes
G1 Z5 F5000 ; lift nozzle

M109 S200 ; wait for temperature to be reached
G90 ; use absolute coordinates
G92 E0
M82 ; use absolute distances for extrusion
G1 F1800.000 E-1.00000
G92 E0
G1 Z0.350 F7800.000
G1 X17.342 Y0.000 F7800.000
G1 E1.00000 F1800.000
G1 X17.739 Y-2.265 E1.21982 F1080.000
G1 X18.883 Y-4.259 E1.43964
G1 X20.636 Y-5.745 E1.65946
G1 X22.791 Y-6.547 E1.87929
G1 X23.999 Y-6.657 E1.99523
G1 X176.001 Y-6.657 E16.52871
G1 X178.266 Y-6.260 E16.74853
G1 X180.260 Y-5.116 E16.96835 F1080.000
G1 X181.746 Y-3.363 E17.18817
G1 X182.548 Y-1.208 E17.40799
G1 X182.658 Y-0.000 E17.52394
G1 X182.658 Y200.000 E36.64668
G1 X182.261 Y202.265 E36.86650
G1 X181.117 Y204.259 E37.08632
G1 X179.364 Y205.745 E37.30614
G1 X177.209 Y206.547 E37.52597
G1 X176.001 Y206.657 E37.64191
G1 X23.999 Y206.657 E52.17539
G1 X21.734 Y206.260 E52.39521
G1 X19.740 Y205.116 E52.61503
G1 X18.254 Y203.363 E52.83485
G1 X17.452 Y201.208 E53.05467
G1 X17.342 Y200.000 E53.17062
G1 X17.342 Y0.075 E72.28619
G1 F1800.000 E71.28619
G92 E0
G1 X172.480 Y178.752 F7800.000
G1 E1.00000 F1800.000
G1 X172.736 Y178.672 E1.02566 F378.000
G1 X172.999 Y178.651 E1.05091
G1 X173.262 Y178.672 E1.07615
G1 X173.518 Y178.752 E1.10173 F378.000
G1 X173.749 Y178.877 E1.12692
G1 X173.956 Y179.043 E1.15222
G1 X174.123 Y179.250 E1.17767
G1 X174.251 Y179.482 E1.20297
G1 X174.324 Y179.738 E1.22846
G1 X174.353 Y180.002 E1.25389
G1 X174.323 Y180.262 E1.27889
G1 X174.251 Y180.517 E1.30426
G1 X174.123 Y180.752 E1.32984
G1 X173.957 Y180.956 E1.35495
G1 X173.749 Y181.128 E1.38069
G1 X173.515 Y181.249 E1.40597
G1 X173.266 Y181.327 E1.43090
G1 X172.999 Y181.354 E1.45652
G1 X172.732 Y181.327 E1.48214
G1 X172.483 Y181.249 E1.50716
G1 X172.250 Y181.127 E1.53226
G1 X172.043 Y180.956 E1.55793
G1 X171.877 Y180.752 E1.58304
G1 X171.750 Y180.519 E1.60846
G1 X171.674 Y180.262 E1.63405
G1 X171.647 Y180.002 E1.65902
G1 X171.674 Y179.738 E1.68442
G1 X171.750 Y179.480 E1.71013
G1 X171.877 Y179.250 E1.73527
G1 X172.044 Y179.043 E1.76071
G1 X172.250 Y178.878 E1.78594
G1 X172.414 Y178.788 E1.80379
G1 X173.426 Y178.461 F7800.000
G1 F1800.000 E0.80379
G92 E0
G1 X28.353 Y180.002 F7800.000
G1 E1.00000 F1800.000
G1 X28.326 Y180.262 E1.02498 F378.000
G1 X28.251 Y180.517 E1.05042
G1 X28.125 Y180.752 E1.07588
G1 X27.956 Y180.957 E1.10126
G1 X27.750 Y181.127 E1.12679
G1 X27.517 Y181.249 E1.15190
G1 X27.268 Y181.327 E1.17691
G1 X27.001 Y181.354 E1.20253
G1 X26.734 Y181.327 E1.22815
G1 X26.485 Y181.249 E1.25308
G1 X26.252 Y181.128 E1.27825
G1 X26.041 Y180.956 E1.30428
G1 X25.877 Y180.751 E1.32937
G1 X25.749 Y180.517 E1.35482
G1 X25.676 Y180.260 E1.38036
G1 X25.649 Y180.002 E1.40517
G1 X25.676 Y179.740 E1.43040
G1 X25.749 Y179.482 E1.45606
G1 X25.877 Y179.251 E1.48124
G1 X26.042 Y179.043 E1.50667
G1 X26.252 Y178.877 E1.53226
G1 X26.482 Y178.752 E1.55734
G1 X26.738 Y178.672 E1.58292
G1 X27.001 Y178.651 E1.60816
G1 X27.264 Y178.672 E1.63341
G1 X27.520 Y178.752 E1.65907 F378.000
G1 X27.750 Y178.878 E1.68409
G1 X27.955 Y179.042 E1.70918
G1 X28.125 Y179.250 E1.73490
G1 X28.250 Y179.482 E1.76008
G1 X28.326 Y179.738 E1.78564
G1 X28.345 Y179.928 E1.80386
G1 X27.248 Y178.404 F7800.000
G1 X27.001 Y21.351 F7800.000
G1 X26.736 Y21.327 E1.82929 F378.000
G1 X26.484 Y21.249 E1.85455
G1 X26.252 Y21.126 E1.87967
G1 X26.042 Y20.957 E1.90543
G1 X25.876 Y20.750 E1.93074
G1 X25.749 Y20.515 E1.95626
G1 X25.676 Y20.263 E1.98138
G1 X25.649 Y20.000 E2.00669
G1 X25.676 Y19.739 E2.03174
G1 X25.749 Y19.485 E2.05703
G1 X25.877 Y19.249 E2.08271
G1 X26.042 Y19.046 E2.10774
G1 X26.252 Y18.874 E2.13366
G1 X26.485 Y18.753 E2.15882
G1 X26.734 Y18.675 E2.18376
G1 X27.001 Y18.648 E2.20938
G1 X27.268 Y18.675 E2.23500
G1 X27.517 Y18.753 E2.26001 F378.000
G1 X27.750 Y18.875 E2.28511
G1 X27.955 Y19.045 E2.31054
G1 X28.125 Y19.247 E2.33585
G1 X28.251 Y19.485 E2.36154
G1 X28.326 Y19.737 E2.38674
G1 X28.353 Y20.000 E2.41195
G1 X28.326 Y20.265 E2.43743
G1 X28.250 Y20.516 E2.46246
G1 X28.126 Y20.752 E2.48799
G1 X27.955 Y20.958 E2.51358
G1 X27.750 Y21.125 E2.53884
G1 X27.519 Y21.248 E2.56390
G1 X27.266 Y21.327 E2.58924
G1 X27.076 Y21.345 E2.60750
G1 F1800.000 E1.60750
G92 E0
G1 X27.320 Y18.419 F7800.000
G1 X171.647 Y20.000 F7800.000
G1 E1.00000 F1800.000
G1 X171.674 Y19.737 E1.02521 F378.000
G1 X171.750 Y19.483 E1.05056
G1 X171.877 Y19.247 E1.07621
G1 X172.044 Y19.046 E1.10125
G1 X172.250 Y18.875 E1.12680
G1 X172.483 Y18.753 E1.15191
G1 X172.732 Y18.675 E1.17692
G1 X172.999 Y18.648 E1.20254
G1 X173.266 Y18.675 E1.22816
G1 X173.515 Y18.753 E1.25310 F378.000
G1 X173.749 Y18.874 E1.27837
G1 X173.956 Y19.046 E1.30401
G1 X174.123 Y19.247 E1.32905
G1 X174.251 Y19.485 E1.35486
G1 X174.323 Y19.737 E1.37998
G1 X174.353 Y20.000 E1.40523
G1 X174.323 Y20.265 E1.43072
G1 X174.251 Y20.515 E1.45568
G1 X174.123 Y20.752 E1.48134
G1 X173.956 Y20.957 E1.50666
G1 X173.749 Y21.125 E1.53213
G1 X173.516 Y21.249 E1.55736
G1 X173.264 Y21.327 E1.58262
G1 X172.999 Y21.351 E1.60805
G1 X172.734 Y21.327 E1.63348
G1 X172.481 Y21.248 E1.65882
G1 X172.250 Y21.125 E1.68388
G1 X172.044 Y20.957 E1.70927
G1 X171.877 Y20.752 E1.73459
G1 X171.750 Y20.517 E1.76008
G1 X171.674 Y20.265 E1.78526
G1 X171.655 Y20.074 E1.80356
G1 F1800.000 E0.80356
G92 E0
G1 X173.382 Y18.442 F7800.000
G1 X161.665 Y20.987 F7800.000
G1 E1.00000 F1800.000
G1 X161.665 Y178.994 E16.10770 F540.000
G1 X157.955 Y187.954 E17.03489
G1 X148.996 Y191.664 E17.96203
G1 X51.004 Y191.664 E27.33140
G1 X42.045 Y187.954 E28.25853
G1 X38.335 Y179.019 E29.18358
G1 X38.335 Y21.004 E44.29197
G1 X42.045 Y12.048 E45.21882
G1 X51.004 Y8.338 E46.14596
G1 X148.996 Y8.338 E55.51533
G1 X157.193 Y11.733 E56.36367
G1 X157.955 Y12.048 E56.44247 F540.000
G1 X161.635 Y20.918 E57.36064
G1 X161.008 Y21.124 F7800.000
G1 X161.008 Y178.865 E72.44285 F540.000
G1 X157.452 Y187.451 E73.33143
G1 X148.865 Y191.007 E74.22004
G1 X51.135 Y191.007 E83.56442
G1 X42.548 Y187.451 E84.45304
G1 X38.992 Y178.880 E85.34030
G1 X38.992 Y21.134 E100.42293
G1 X42.548 Y12.551 E101.31123
G1 X51.135 Y8.995 E102.19985
G1 X148.865 Y8.995 E111.54423 F540.000
G1 X157.452 Y12.551 E112.43284
G1 X160.978 Y21.055 E113.31305
G1 X160.351 Y21.261 F7800.000
G1 X160.351 Y178.735 E128.36976 F378.000
G1 X156.949 Y186.948 E129.21973
G1 X148.735 Y190.350 E130.06982
G1 X51.265 Y190.350 E139.38922
G1 X43.051 Y186.948 E140.23931
G1 X39.649 Y178.741 E141.08879
G1 X39.649 Y21.265 E156.14565
G1 X43.051 Y13.054 E156.99541
G1 X51.265 Y9.652 E157.84550
G1 X148.735 Y9.652 E167.16489
G1 X156.690 Y12.947 E167.98824
G1 X156.949 Y13.054 E168.01499 F378.000
G1 X160.321 Y21.192 E168.85723
G1 X156.654 Y12.670 F7800.000
G1 X174.337 Y22.369 F7800.000
G1 X174.337 Y177.631 E183.70238 F540.000
G1 X173.514 Y177.374 E183.78476
G1 X172.999 Y177.332 E183.83419
G1 X172.484 Y177.374 E183.88362
G1 X171.964 Y177.536 E183.93568
G1 X171.518 Y177.780 E183.98427
G1 X171.110 Y178.107 E184.03426
G1 X170.782 Y178.515 E184.08425
G1 X170.530 Y178.970 E184.13405
G1 X170.379 Y179.484 E184.18519
G1 X170.326 Y180.004 E184.23519
G1 X170.380 Y180.518 E184.28464
G1 X170.529 Y181.026 E184.33521
G1 X170.782 Y181.489 E184.38570
G1 X171.106 Y181.886 E184.43466
G1 X171.518 Y182.227 E184.48583
G1 X171.978 Y182.468 E184.53551
G1 X172.467 Y182.621 E184.58449
G1 X172.999 Y182.675 E184.63558
G1 X173.531 Y182.621 E184.68666
G1 X174.337 Y182.369 E184.76742
G1 X174.337 Y198.336 E186.29405
G1 X25.663 Y198.336 E200.50929
G1 X25.663 Y182.369 E202.03593
G1 X26.469 Y182.621 E202.11668
G1 X27.001 Y182.675 E202.16778
G1 X27.533 Y182.621 E202.21887
G1 X28.022 Y182.468 E202.26784
G1 X28.482 Y182.227 E202.31752
G1 X28.889 Y181.890 E202.36806
G1 X29.221 Y181.489 E202.41785
G1 X29.473 Y181.018 E202.46888
G1 X29.620 Y180.518 E202.51873
G1 X29.674 Y180.004 E202.56818
G1 X29.621 Y179.484 E202.61819
G1 X29.472 Y178.978 E202.66860
G1 X29.221 Y178.515 E202.71894
G1 X28.885 Y178.103 E202.76977
G1 X28.482 Y177.780 E202.81912
G1 X28.036 Y177.536 E202.86771
G1 X27.516 Y177.374 E202.91978
G1 X27.001 Y177.332 E202.96921
G1 X26.486 Y177.374 E203.01864
G1 X25.663 Y177.631 E203.10102
G1 X25.663 Y22.369 E217.94617
G1 X26.478 Y22.623 E218.02774
G1 X27.001 Y22.671 E218.07800
G1 X27.524 Y22.623 E218.12825
G1 X28.029 Y22.466 E218.17878
G1 X28.482 Y22.223 E218.22791
G1 X28.885 Y21.895 E218.27759
G1 X29.224 Y21.486 E218.32841
G1 X29.472 Y21.017 E218.37913
G1 X29.620 Y20.523 E218.42840
G1 X29.674 Y19.999 E218.47879
G1 X29.620 Y19.480 E218.52866
G1 X29.473 Y18.985 E218.57803
G1 X29.221 Y18.509 E218.62952
G1 X28.885 Y18.109 E218.67956
G1 X28.482 Y17.775 E218.72957
G1 X28.022 Y17.534 E218.77925
G1 X27.533 Y17.381 E218.82823
G1 X27.001 Y17.327 E218.87932
G1 X26.469 Y17.381 E218.93041
G1 X25.663 Y17.633 E219.01116
G1 X25.663 Y1.664 E220.53799
G1 X174.337 Y1.664 E234.75323
G1 X174.337 Y17.633 E236.28005
G1 X173.531 Y17.381 E236.36081
G1 X172.999 Y17.327 E236.41189
G1 X172.467 Y17.381 E236.46298
G1 X171.978 Y17.534 E236.51196
G1 X171.518 Y17.775 E236.56164
G1 X171.110 Y18.113 E236.61228
G1 X170.782 Y18.509 E236.66148
G1 X170.529 Y18.978 E236.71243
G1 X170.380 Y19.480 E236.76251
G1 X170.326 Y19.999 E236.81238
G1 X170.380 Y20.523 E236.86277
G1 X170.530 Y21.024 E236.91275
G1 X170.780 Y21.486 E236.96293
G1 X171.110 Y21.891 E237.01292
G1 X171.518 Y22.223 E237.06323
G1 X171.971 Y22.466 E237.11236
G1 X172.476 Y22.623 E237.16289
G1 X172.999 Y22.671 E237.21315
G1 X173.522 Y22.623 E237.26340
G1 X174.265 Y22.391 E237.33780
G1 X174.994 Y20.724 F7800.000
G1 X174.994 Y178.725 E252.44489 F540.000
G1 X174.643 Y178.849 E252.48046
G1 X174.423 Y178.575 E252.51405
G1 X174.114 Y178.327 E252.55189
G1 X173.774 Y178.144 E252.58886
G1 X173.388 Y178.023 E252.62749
G1 X172.999 Y177.992 E252.66482
G1 X172.610 Y178.023 E252.70216
G1 X172.222 Y178.144 E252.74102
G1 X171.884 Y178.329 E252.77783
G1 X171.577 Y178.575 E252.81544
G1 X171.330 Y178.882 E252.85315
G1 X171.140 Y179.225 E252.89062
G1 X171.027 Y179.611 E252.92905
G1 X170.987 Y180.003 E252.96675
G1 X171.027 Y180.390 E253.00396
G1 X171.140 Y180.772 E253.04204
G1 X171.330 Y181.121 E253.07999
G1 X171.575 Y181.421 E253.11703
G1 X171.884 Y181.677 E253.15545
G1 X172.231 Y181.858 E253.19284
G1 X172.600 Y181.974 E253.22983
G1 X172.999 Y182.014 E253.26819
G1 X173.398 Y181.974 E253.30654
G1 X173.765 Y181.859 E253.34331
G1 X174.114 Y181.679 E253.38087
G1 X174.425 Y181.421 E253.41952
G1 X174.994 Y180.724 E253.50552
G1 X174.994 Y198.993 E255.25231
G1 X25.006 Y198.993 E269.59320
G1 X25.006 Y181.277 E271.28707
G1 X25.357 Y181.154 E271.32267
G1 X25.572 Y181.421 E271.35541
G1 X25.889 Y181.680 E271.39459
G1 X26.235 Y181.859 E271.43184
G1 X26.602 Y181.974 E271.46861
G1 X27.001 Y182.014 E271.50696
G1 X27.400 Y181.974 E271.54532
G1 X27.769 Y181.858 E271.58231
G1 X28.116 Y181.677 E271.61970
G1 X28.422 Y181.423 E271.65774
G1 X28.673 Y181.121 E271.69533
G1 X28.862 Y180.768 E271.73357
G1 X28.973 Y180.390 E271.77122
G1 X29.013 Y180.003 E271.80843
G1 X28.973 Y179.611 E271.84613
G1 X28.861 Y179.230 E271.88412
G1 X28.673 Y178.882 E271.92187
G1 X28.420 Y178.573 E271.96015
G1 X28.116 Y178.329 E271.99737
G1 X27.778 Y178.144 E272.03418
G1 X27.390 Y178.023 E272.07304
G1 X27.001 Y177.992 E272.11037
G1 X26.612 Y178.023 E272.14771
G1 X26.226 Y178.144 E272.18634
G1 X25.889 Y178.326 E272.22300
G1 X25.574 Y178.575 E272.26138
G1 X25.359 Y178.847 E272.29452
G1 X25.006 Y178.724 E272.33024
G1 X25.006 Y21.277 E287.38431
G1 X25.357 Y21.154 E287.41991
G1 X25.574 Y21.424 E287.45303
G1 X25.889 Y21.677 E287.49165
G1 X26.230 Y21.858 E287.52860
G1 X26.607 Y21.975 E287.56630
G1 X27.001 Y22.011 E287.60415
G1 X27.395 Y21.975 E287.64199
G1 X27.774 Y21.857 E287.67992
G1 X28.116 Y21.674 E287.71702
G1 X28.420 Y21.426 E287.75449
G1 X28.675 Y21.119 E287.79270
G1 X28.861 Y20.766 E287.83082
G1 X28.973 Y20.394 E287.86797
G1 X29.013 Y19.999 E287.90590
G1 X28.973 Y19.609 E287.94345
G1 X28.862 Y19.235 E287.98073
G1 X28.673 Y18.878 E288.01932
G1 X28.420 Y18.577 E288.05699
G1 X28.116 Y18.325 E288.09471
G1 X27.769 Y18.144 E288.13210
G1 X27.400 Y18.028 E288.16910
G1 X27.001 Y17.988 E288.20745
G1 X26.602 Y18.028 E288.24581
G1 X26.235 Y18.143 E288.28258
G1 X25.889 Y18.322 E288.31983
G1 X25.574 Y18.579 E288.35869
G1 X25.006 Y19.278 E288.44478
G1 X25.006 Y1.007 E290.19171
G1 X174.994 Y1.007 E304.53260
G1 X174.994 Y19.270 E306.27880
G1 X174.423 Y18.579 E306.36451
G1 X174.114 Y18.323 E306.40283
G1 X173.765 Y18.143 E306.44040
G1 X173.398 Y18.028 E306.47717
G1 X172.999 Y17.988 E306.51552
G1 X172.600 Y18.028 E306.55387
G1 X172.231 Y18.144 E306.59087
G1 X171.884 Y18.325 E306.62826
G1 X171.577 Y18.579 E306.66636
G1 X171.330 Y18.878 E306.70348
G1 X171.140 Y19.231 E306.74178
G1 X171.027 Y19.609 E306.77950
G1 X170.987 Y19.999 E306.81704
G1 X171.027 Y20.394 E306.85497
G1 X171.140 Y20.770 E306.89255
G1 X171.328 Y21.119 E306.93038
G1 X171.577 Y21.424 E306.96804
G1 X171.884 Y21.674 E307.00589
G1 X172.226 Y21.857 E307.04299
G1 X172.605 Y21.975 E307.08092
G1 X172.999 Y22.011 E307.11876
G1 X173.393 Y21.975 E307.15660
G1 X173.770 Y21.858 E307.19430
G1 X174.114 Y21.676 E307.23157
G1 X174.423 Y21.424 E307.26965
G1 X174.947 Y20.782 E307.34887
G1 X175.651 Y0.350 F7800.000
G1 X175.651 Y199.650 E326.40468 F378.000
G1 X24.349 Y199.650 E340.87122
G1 X24.349 Y0.350 E359.92703
G1 X175.576 Y0.350 E374.38641
G1 X175.401 Y0.783 F7800.000
G1 X173.840 Y2.121 F7800.000
G1 X173.880 Y2.161 E374.39181 F1080.000
G1 X173.880 Y3.091 E374.48081
G1 X172.910 Y2.121 E374.61207
G1 X171.979 Y2.121 E374.70106
G1 X173.880 Y4.022 E374.95817
G1 X173.880 Y4.953 E375.04716
G1 X171.048 Y2.121 E375.43012
G1 X170.118 Y2.121 E375.51912
G1 X173.880 Y5.883 E376.02793
G1 X173.880 Y6.814 E376.11692
G1 X169.187 Y2.121 E376.75159
G1 X168.256 Y2.121 E376.84058
G1 X173.880 Y7.745 E377.60110
G1 X173.880 Y8.676 E377.69009
G1 X167.325 Y2.121 E378.57646
G1 X166.395 Y2.121 E378.66545
G1 X173.880 Y9.606 E379.67768
G1 X173.880 Y10.537 E379.76667
G1 X165.464 Y2.121 E380.90474
G1 X164.533 Y2.121 E380.99373
G1 X173.880 Y11.468 E382.25766
G1 X173.880 Y12.399 E382.34665
G1 X163.602 Y2.121 E383.73643
G1 X162.672 Y2.121 E383.82542
G1 X173.880 Y13.329 E385.34105
G1 X173.880 Y14.260 E385.43004
G1 X161.741 Y2.121 E387.07152
G1 X160.810 Y2.121 E387.16052
G1 X173.880 Y15.191 E388.92785
G1 X173.880 Y16.121 E389.01684
G1 X159.880 Y2.121 E390.91003
G1 X158.949 Y2.121 E390.99902
G1 X173.823 Y16.995 E393.01026
G1 X172.788 Y16.890 E393.10974
G1 X158.018 Y2.121 E395.10685
G1 X157.087 Y2.121 E395.19584
G1 X172.012 Y17.045 E397.21395
G1 X171.372 Y17.336 E397.28116
G1 X156.157 Y2.121 E399.33859
G1 X155.226 Y2.121 E399.42758
G1 X170.845 Y17.740 E401.53959
G1 X170.414 Y18.239 E401.60269
G1 X154.295 Y2.121 E403.78222
G1 X153.364 Y2.121 E403.87121
G1 X170.092 Y18.848 E406.13306
G1 X169.909 Y19.596 E406.20667
G1 X152.434 Y2.121 E408.56964
G1 X151.503 Y2.121 E408.65863
G1 X169.923 Y20.540 E411.14931
G1 X172.463 Y23.080 F7800.000
G1 X173.880 Y24.498 E411.34103 F1080.000
G1 X173.880 Y23.567 E411.43002
G1 X173.405 Y23.092 E411.49428
G1 X173.880 Y25.429 F7800.000
G1 X150.572 Y2.121 E414.64599 F1080.000
G1 X149.641 Y2.121 E414.73498
G1 X173.880 Y26.360 E418.01253
G1 X173.880 Y27.290 E418.10152
G1 X148.711 Y2.121 E421.50493
G1 X147.780 Y2.121 E421.59392
G1 X156.690 Y11.031 E422.79872
G1 X155.101 Y10.373 F7800.000
G1 X146.849 Y2.121 E423.91454 F1080.000
G1 X145.919 Y2.121 E424.00353
G1 X153.513 Y9.715 E425.03037
G1 X151.924 Y9.056 F7800.000
G1 X144.988 Y2.121 E425.96824 F1080.000
G1 X144.057 Y2.121 E426.05723
G1 X150.335 Y8.398 E426.90613
G1 X148.887 Y7.881 F7800.000
G1 X143.126 Y2.121 E427.68512 F1080.000
G1 X142.196 Y2.121 E427.77411
G1 X147.957 Y7.881 E428.55310
G1 X147.026 Y7.881 E428.64209
G1 X141.265 Y2.121 E429.42107
G1 X140.334 Y2.121 E429.51006
G1 X146.095 Y7.881 E430.28905
G1 X145.164 Y7.881 E430.37804
G1 X139.403 Y2.121 E431.15703
G1 X138.473 Y2.121 E431.24602
